X:1
T:The Little House Under the Hill
M:6/8
L:1/8
Q:80
C:Arranged by T. Tully
S:Jig
K:HP
{gef}eA{d}c{g}A{d}c{G}c | \
{gef}ec{G}c{gef}eAf | \
{gef}eA{d}c{g}A{d}c{G}c |
{gde}dBc{gde}dAf{gef}eA{d}c{g}A{d}c{G}c | \
{gef}ec{G}c{g}efg | \
a{g}a{g}a{fg}fec |
{gde}dBc{gde}dAf :| \
{gef}eA{d}caA{d}c | \
{gef}eA{d}c{gef}eAf |
{gef}eA{d}caA{d}c | \
{gde}dBc{gde}dAf{gef}eA{d}caA{d}c | \
{gef}eA{d}c{g}efg |
a{g}a{g}a{fg}fec | \
{gde}dBc{gde}d3 :|
